X: 100437
T: MISS BAIGRIE -- Reel
C: By Robert Baillie
R: reel, hornpipe
B: K\"ohler's Violin Repository, v.3, 1885 p.276 #3
F: http://www.archive.org/details/klersviolinrepos03rugg
Z: 2012 John Chambers <jc:trillian.mit.edu>
M: C|
L: 1/8
K: D
uA |\
(d>c)d>f | (a>^g)a>b | (a>f)e>f (d>A)A>d | (Bd)cB (AF)de | (fd)gf (eE)EA |
(d>c)d>f | (a>^g)a>b | (a>f)e>f (d>A)A>d | (ce)dc (Bd)fd | caB^g aAA |[| uG |
(F>G)(A>F) D>GB>G | F>A,D>F (G>E)(E>G) | (F>G)(A>F) D>GB>G | FABc dDDG |
(F>G)(A>F) D>GB>G | F>Adf (ge)cA | (af)dA (Bd)gB | (ce)Ac (dD)D |]

%%sep 2 1 500

